!!!!SEGMENT: pl-kk--kk-i-323_casali-giovanni-battista--ecce-panis-angelorum.krn
!!!cenid: 17xx:2131
!!!COM: Casali, Giovanni Battista
!!!COM-rismID: pe30000607
!!!CDT: 1715-1792/07/06
!!!CNT: Italian
!!!OTL: Ecce panis angelorum
!!!PDT:
!!!AGN: Sacred
!!!SMS-siglum: PL-Kk
!!!SMS-shelfmark: Kk.I.323
!!!SMS-shelfwork: W
!!!SMS-variant:
!!!SMS-altvar:
!!!NIFC-rismSourceID: 1001146196
!!!NIFC-rismChildID: 1001146196
!!!NIFC-islandoraID: pl-kk:5408
!!!URL-pdf-islandora: https://repozytorium.nifc.pl/islandora/object/pl-kk%3A5408/datastream/PDF/view
!!!URL-scan: https://polish.musicsources.pl/pl/lokalizacje/galeria/rekopisy/5942 @EN{Scan on Polish Music Sources Website} @PL{Skany w portalu Dziedzictwo Muzyki Polskiej w otwartym dostępie}
!!!ONB-nifc:
!!!AIN: 1 organ 1 vox
!!!key:
**kern	**kern	**kern	**text
*part2	*part2	*part1	*part1
*staff3	*staff2	*staff1	*staff1
*Iorgan	*Iempty	*Ivox	*
*I"Organo	*	*I"Canto Solo.	*
*I'Org.	*	*I'C.	*
*clefF4	*clefC1	*clefC1	*
*k[f#]	*k[f#]	*k[f#]	*
*G:	*G:	*G:	*
*M4/4	*M4/4	*M4/4	*
*met(c)	*met(c)	*met(c)	*
=1	=1	=1	=1
*2\right	*	*	*
!	!LO:TX:b:Bi:t=Ecce Panis	!	!
!	!LO:TX:b:Bi:t=Largo:rj	!LO:TX:a:Bi:t=Largo:problem='Largo' przed metrum i kluczem	!
!LO:TX:t=P:problem=mixed beam	!	!	!
8GG/L	1r	1r	.
8G\	.	.	.
8F#\	.	.	.
8E\J	.	.	.
8D\L	.	.	.
8E\	.	.	.
8D\	.	.	.
8C\J	.	.	.
=2	=2	=2	=2
*	*2\right	*2\right	*
!LO:TX:t=P:problem=mixed beam	!	!	!
8BB/L	[>2dd\	[>2dd\	Ec-
8G\	.	.	.
8F#\	.	.	.
8E\J	.	.	.
4D\	8dd\]	8dd\]	.
.	4ee\	4ee\	-ce
4C\	.	.	.
.	8ff#\	8ff#\	.
=3	=3	=3	=3
8BB/L	8gg\	8gg\	Pa-
8BB/J	8g/	8g/	-nis
8BB/L	8.dd\	8.dd\	ec-
8BB/J	.	.	.
.	16b\	16b\	-ce
8C/L	8.a\	8.a\	pa-
8C/J	.	.	.
.	16cc\	16cc\	-nis
!LO:LB:g=original	!LO:LB:g=original	!	!
.	8qqb/	8qqb/	.
8D\L	8.a\	8.a\	an-
8D\J	.	.	.
.	16cc\	16cc\	-ge-
!	!	!LO:LB:g=original	!
=4	=4	=4	=4
8G\L	16.b\LL	16.b\LL	-lo-
.	32cc\JJk	32cc\JJk	.
8G\J	8dd\	8dd\	-rum
8BB/L	8.gg\	8.gg\	fa-
8BB/J	.	.	.
.	16b\	16b\	-ctus
8C/L	8.a\	8.a\	ci-
8C/J	.	.	.
.	16ee\	16ee\	-bus
8D\L	8dd\	8dd\	vi-
8D\J	8cc\	8cc\	-a-
=5	=5	=5	=5
!LO:TX:t=P:problem=mixed beam	!	!	!
8G\L	16b\LL	16b\LL	-to-
.	16a\JJ	16a\JJ	.
8GG/J	8g\	8g\	-rum
8GG/L	4r	4r	.
8GG/J	.	.	.
8G\L	8b\	8b\	ve-
8G\J	4b\	4b\	-re
8G\L	.	.	.
8G\J	8cc#X\	8cc#X\	.
!LO:LB:g=original	!LO:LB:g=original	!	!
=6	=6	=6	=6
8F#\L	[>2dd\	[>2dd\	Pa-
8A\J	.	.	.
8F#\L	.	.	.
16E\L	.	.	.
16D\JJ	.	.	.
!	!	!LO:LB:g=original	!
!	!	!LO:TX:a:t=P:problem=w źródle brak zakończenia ligatury	!
8E\L	32dd\KLL]	32dd\KLL]	.
.	16.cc#X\JJ	16.cc#X\JJ	.
8E\J	32ee\KLL	32ee\KLL	-nis
.	16.dd\JJ	16.dd\JJ	.
8AA/L	(>32cc#X\KLL	32cc#X\KLL	Fi-
.	16.b\JJ)	16.b\JJ	-li-
8AA/J	32a\KLL	32a\KLL	.
.	16.g\JJ	16.g\JJ	.
=7	=7	=7	=7
8D\L	8f#/	8f#/	-o-
8D\J	8a\	8a\	-rum
8F#\L	[>4dd\	[>4dd\	Pa-
8F#\J	.	.	.
8E\L	32dd\KLL]	32dd\KLL]	.
.	16.cc#X\JJ	16.cc#X\JJ	.
8E\J	32ee\KLL	32ee\KLL	-nis
.	16.dd\JJ	16.dd\JJ	.
8AA/L	32cc#X\KLL	32cc#X\KLL	Fi-
.	16.b\JJ	16.b\JJ	.
8AA/J	32a\KLL	32a\KLL	-li-
.	16.g\JJ	16.g\JJ	.
!LO:LB:g=original	!LO:LB:g=original	!	!
=8	=8	=8	=8
8D\L	16.f#/LL	16.f#/LL	-o-
.	32g/JJk	32g/JJk	.
8D\J	8a\	8a\	-rum
!	!	!LO:LB:g=original	!
8D\L	8a\	8a\	non
!	!	!LO:SIC:v:l:s=mit-	!
8D\J	8dd\	8dd\	mi
!	!	!LO:SIC:v:l:s=-ten-	!
8E\L	8.cc\L	8.cc\L	ten-
8E\J	.	.	.
.	16ee\Jk	16ee\Jk	.
8F#\L	8dd\L	8dd\L	-dus
8F#\J	8cc\J	8cc\J	.
=9	=9	=9	=9
8G\L	16b\LL	16b\LL	ca-
.	32dd\L	32dd\L	.
.	32cc\JJJ	32cc\JJJ	.
8G\J	8bm>\	8b\	.
8G\L	16b\LL	16b\LL	.
.	32dd\L	32dd\L	.
.	32cc\JJJ	32cc\JJJ	.
8G\J	16b\LL	16b\LL	.
.	16dd#X\JJ	16dd#X\JJ	.
8G\L	16ee\LL	16ee\LL	.
.	32gg\L	32gg\L	.
.	32ff#\JJJ	32ff#\JJJ	.
8G\J	8ee\	8ee\	.
!LO:LB:g=original	!LO:LB:g=original	!	!
8G\L	16ee\LL	16ee\LL	.
.	32gg\L	32gg\L	.
.	32ff#\JJJ	32ff#\JJJ	.
8G\J	16ee\LL	16ee\LL	.
.	16ddn\JJ	16ddn\JJ	.
!	!	!LO:LB:g=original	!
=10	=10	=10	=10
8A\L	32cc#X\LLL	32cc#X\LLL	.
.	32a\	32a\	.
.	32g#X\	32g#X\	.
.	32a\JJJ	32a\JJJ	.
8A\J	8aM>\	8aM>\	.
8A\L	32cc#X\LLL	32cc#X\LLL	.
.	32dd\	32dd\	.
.	32ee\	32ee\	.
.	32ff#\JJJ	32ff#\JJJ	.
8A\J	32gg\LLL	32gg\LLL	.
.	32ee\	32ee\	.
.	32dd\	32dd\	.
.	32cc#X\JJJ	32cc#X\JJJ	.
8A\L	32dd\LLL	32dd\LLL	.
.	32a\	32a\	.
.	32g#X\	32g#X\	.
.	32a\JJJ	32a\JJJ	.
8A\J	8a\	8aM>\	.
8A\	32dd\LLL	32dd\LLL	.
.	32ee\	32ee\	.
.	32ff#\	32ff#\	.
.	32gg\JJJ	32gg\JJJ	.
!LO:PB:g=original	!LO:PB:g=original	!	!
8A\	32aa\LLL	32aa\LLL	.
.	32ff#\	32ff#\	.
.	32ee\	32ee\	.
.	32dd\JJJ	32dd\JJJ	.
=11	=11	=11	=11
8A\L	32ee\LLL	32ee\LLL	.
.	32a\	32a\	.
.	32g#X\	32g#X\	.
.	32a\JJJ	32a\JJJ	.
8A\J	8aM>\	8a\	.
!	!	!LO:LB:g=original	!
8AA/L	32ee\LLL	32ee\LLL	.
.	32ff#\	32ff#\	.
.	32gg\	32gg\	.
.	32aa\JJJ	32aa\JJJ	.
8AA/J	32bb\LLL	32bb\LLL	.
.	32gg\	32gg\	.
.	32ff#\	32ff#\	.
.	32ee\JJJ	32ee\JJJ	.
8D/L	16ff#m>\LL	16ff#m>\LL	.
.	32ee\L	32ee\L	.
.	32ff#\JJJ	32ff#\JJJ	.
8AA/J	16gg\LL	16gg\LL	.
.	16ee\JJ	16ee\JJ	.
8D/L	16ff#m>\LL	16ff#m>\LL	.
.	32ee\L	32ee\L	.
.	32ff#\JJJ	32ff#\JJJ	.
8AA/J	16gg\LL	16gg\LL	.
.	16ee\JJ	16ee\JJ	.
!LO:LB:g=original	!LO:LB:g=original	!	!
=12	=12	=12	=12
8D\L	8ff#\L	8ff#\L	.
8E\	8gg\	8gg\	.
8F#\	8aa\	8aa\	.
8G\J	8b\J	8b\J	.
8A\L	8a\L	8a\L	.
8A\J	32dd\LL	32dd\LL	.
.	32cc#X\	32cc#X\	.
.	32dd\	32dd\	.
.	32ee\JJJ	32ee\JJJ	.
!	!	!LO:LB:g=original	!
.	8qqff#/	8qqff#/	.
8AA/L	8.ee\	8.ee\	.
8AA/J	.	.	.
.	16dd\	16dd\	-ni-
=13	=13	=13	=13
8BB/L	4dd\	4dd\	-bus
8BB/J	.	.	.
8BB/L	8.dd\	8.dd\	non
8BB/J	.	.	.
.	16ff#\	16ff#\	mit-
8C#X/L	8ee\	8ee\	-ten-
8C#/J	8ee\	8ee\	-dus
8C#/L	8ee\	8.ee\	non
8C#/J	8gg\	.	.
.	.	16gg\	mit-
!LO:LB:g=original	!LO:LB:g=original	!	!
=14	=14	=14	=14
8D\L	8ff#\L	8ff#\L	-ten-
8E\	8gg\	8gg\	.
8F#\	8aa\J	8aa\J	.
8G\J	8b\	8b\	-dus
!	!	!LO:LB:g=original	!
8A\L	8a\L	8a\L	ca-
8A\J	32dd\LL	32dd\LL	.
.	32cc#X\	32cc#X\	.
.	32dd\	32dd\	.
.	32ee\JJJ	32ee\JJJ	.
.	8qqff#/	8qqff#/	.
8AA/L	8.ee\	8.ee\	.
8AA/J	.	.	.
.	16dd\	16dd\	-ni-
=15	=15	=15	=15
8D\L	4dd\	4dd\	-bus
8d\	.	.	.
8c#X\	4r	4r	.
8B\J	.	.	.
8A\L	2r	2r	.
8B\	.	.	.
8A\	.	.	.
8G\J	.	.	.
=16	=16	=16	=16
8F#\L	[>2a\	[>2a\	Ec-
8d\	.	.	.
8c#X\	.	.	.
8B\J	.	.	.
4A\	8a\]	8a\]	.
.	4b\	4b\	-ce
4G\	.	.	.
.	8cc#X\	8cc#X\	.
!!LO:LB:g=original
=17	=17	=17	=17
8F#\L	8dd\	8dd\	Pa-
8F#\J	8d/	8d/	-nis
8F#\L	8.dd\	8.dd\	ec-
8F#\J	.	.	.
.	16ff#\	16ff#\	-ce
8G\L	8.ee\	8.ee\	Pa-
8G\J	.	.	.
.	16gg\	16gg\	-nis
.	8qqff#/	8qqff#/	.
8A\L	8.ee\	8.ee\	An-
8A\J	.	.	.
.	16gg\	16gg\	-ge-
=18	=18	=18	=18
8D\L	16ff#\LL	16ff#\LL	-lo-
.	16ee\JJ	16ee\JJ	.
16d\L	8dd\	8dd\	-rum
16e\JJ	.	.	.
8d\L	4r	4r	.
8c\J	.	.	.
8B\L	2r	2r	.
16.B\L	.	.	.
32c\JJk	.	.	.
8B\L	.	.	.
8A\J	.	.	.
!!LO:LB:g=original
=19	=19	=19	=19
8G\L	[>2dd\	[>2dd\	ec-
8G\	.	.	.
8F#\	.	.	.
8E\J	.	.	.
4D/	8dd\]	8dd\]	-ce
.	4ee\	4ee\	.
4C/	.	.	.
.	8ff#\	8ff#\	.
=20	=20	=20	=20
8BB/L	8gg\	8gg\	Pa-
8BB/J	8g/	8g/	-nis
8BB/L	8.dd\	8.dd\	ec-
8BB/J	.	.	.
.	16b\	16b\	-ce
8C/L	8.a\	8.a\	Pa-
8C/J	.	.	.
.	16cc\	16cc\	-nis
.	8qqb/	8qqb/	.
8D\L	8.a\	8.a\	An-
8D\J	.	.	.
.	16cc\	16cc\	-ge-
!!LO:PB:g=original
=21	=21	=21	=21
8G\L	16.b\LL	16.b\LL	-lo-
.	32cc\JJk	32cc\JJk	.
8G\J	8dd\	8dd\	-rum
8E\L	8.gg\	8.gg\	fa-
8E\J	.	.	.
.	16b\	16b\	-ctus
8C/L	8.a\	8.a\	ci-
8C/J	.	.	.
.	16cc\	16cc\	-bus
.	8qqb/	8qqb/	.
8D\L	8.a\	8.a\	vi-
8D\J	.	.	.
.	16cc\	16cc\	-a-
=22	=22	=22	=22
!LO:TX:t=P:problem=mixed beam	!	!	!
8G\L	16b\LL	16b\LL	-to-
.	16a\JJ	16a\JJ	-rum
8GG/	8g\	8g\	.
8GG/J	8r	8r	.
8r	16.dd\	16.dd\	ve-
.	32ee\	32ee\	-re
!!LO:LB:g=original
8G#X\L	8.ffn\	8.ffn\	Pa-
8G#\J	.	.	.
.	32ee\LLL	32ee\LLL	-nis
.	32dd\JJJ	32dd\JJJ	.
8A\L	8cc\	8cc\	Fi-
8E\J	8b\	8b\	-li-
=23	=23	=23	=23
!LO:TX:t=P:problem=mixed beam	!	!	!
8A\L	16.cc\LL	16.cc\LL	-o-
.	32b\JJk	32b\JJk	-rum
8AA/	8a\	8a\	.
8AA/J	8r	8r	.
8r	16.cc\	16.cc\	ve-
.	32dd\	32dd\	-re
8F#\L	8.ee\	8.ee\	Pa-
8F#\J	.	.	.
.	32dd\LLL	32dd\LLL	-nis
.	32cc\JJJ	32cc\JJJ	.
8G\L	8b\	8b\	Fi-
8D\J	8a\	8a\	-li-
!!LO:LB:g=original
=24	=24	=24	=24
8G\L	16b\LL	16b\LL	-o-
.	16a\JJ	16a\JJ	.
8G\J	8g\	8g\	-rum
8F#\L	8.dd\	8.dd\	non
8F#\J	.	.	.
.	16cc\	16cc\	mit-
8G\L	8b\	8b\	-ten-
8F#\J	16.a\LL	16.a\LL	-dus
.	32cc\JJk	32cc\JJk	.
.	8qqcc/	8qqcc/	.
8G\L	8.b\	8.b\	ca-
8C#X\J	.	.	.
.	16b\	16b\	-ni-
=25	=25	=25	=25
8D\L	4a\	4a\	-bus
16D\L	.	.	.
16E\JJ	.	.	.
8D/L	4r	4r	.
8Cn/J	.	.	.
!LO:LB:g=original	!LO:LB:g=original	!	!
8BB/L	8dd\	8dd\	non
8BB/J	8dd\	8dd\	mit-
8BB/L	8dd\	8dd\	-ten-
8BB/J	16gg\LL	16gg\LL	-dus
.	16ffn\JJ	16ffn\JJ	.
!	!	!LO:LB:g=original	!
=26	=26	=26	=26
8C/L	16ee\LL	16ee\LL	ca-
.	32gg\L	32gg\L	.
.	32ff#\JJJ	32ff#\JJJ	.
8C/J	8ee~>\	8ee'>\	.
8c\L	16ee\LL	16ee\LL	.
.	32gg\L	32gg\L	.
.	32ff#\JJJ	32ff#\JJJ	.
8c\J	8ee\	8ee'>\	.
8F#\L	[>8aa\L	[>8aa\	.
8F#\J	32aa\LL]	32aa\LLL]	.
.	32bb\	32bb\	.
.	32aa\	32aa\	.
.	32gg\JJJ	32gg\JJJ	.
!LO:LB:g=original	!LO:LB:g=original	!	!
8F#\L	32ff#\LLL	32ff#\LLL	.
.	32gg\	32gg\	.
.	32ff#\	32ff#\	.
.	32ee\	32ee\	.
8F#\J	32dd\	32dd\	.
.	32ee\	32ee\	.
.	32dd\	32dd\	.
.	32cc#X\JJJ	32cc#X\JJJ	.
!	!	!LO:LB:g=original	!
=27	=27	=27	=27
8B\L	16dd\LL	16dd\LL	.
.	32ff#\L	32ff#\L	.
.	32ee\JJJ	32ee\JJJ	.
8B\J	8dd~>\	8dd~>\	.
8B\L	16dd\LL	16dd\LL	.
.	32ff#\L	32ff#\L	.
.	32ee\JJJ	32ee\JJJ	.
8B\J	8dd~>\	8dd~>\	.
8E\L	[>8gg\L	[>8gg\	.
8E\J	32gg\LL]	32gg\LLL]	.
.	32aa\	32aa\	.
.	32gg\	32gg\	.
.	32ff#\JJJ	32ff#\JJJ	.
8E\L	32ee\LLL	32ee\LLL	.
.	32ff#\	32ff#\	.
.	32ee\	32ee\	.
.	32dd\	32dd\	.
8E\J	32cc\	32ccn\	.
.	32dd\	32dd\	.
.	32cc\	32cc\	.
.	32b\JJJ	32b\JJJ	.
!LO:PB:g=original	!LO:PB:g=original	!LO:LB:g=original	!
=28	=28	=28	=28
8A\L	16cc\LL	16cc\LL	.
.	32ee\L	32ee\L	.
.	32dd\JJJ	32dd\JJJ	.
8A\J	8cc~>\	8cc~>\	.
8A\L	16cc\LL	16cc\LL	.
.	32ee\L	32ee\L	.
.	32dd\JJJ	32dd\JJJ	.
8A\J	8cc~>\	8cc~>\	.
8F#\L	[>8aa\	[>8aa\	.
8F#\J	32aa\LLL]	32aa\LLL]	.
.	32bb\	32bb\	.
.	32aa\	32aa\	.
.	32gg\JJJ	32gg\JJJ	.
8F#\L	32ff#\LLL	32ff#\LLL	.
.	32gg\	32gg\	.
.	32ff#\	32ff#\	.
.	32ee\	32ee\	.
8F#\J	32dd\	32dd\	.
.	32ee\	32ee\	.
.	32dd\	32dd\	.
.	32cc\JJJ	32cc\JJJ	.
!LO:LB:g=original	!LO:LB:g=original	!	!
=29	=29	=29	=29
8G\L	16b\LL	16b\LL	.
.	16gg\JJ	16gg\JJ	.
8B\J	16gg\LL	16gg\LL	.
.	32ff#\L	32ff#\L	.
.	32gg\JJJ	32gg\JJJ	.
!	!	!LO:LB:g=original	!
8F#\L	8dd\L	8dd\L	.
8D\J	8cc\J	8cc\J	.
8G\L	16b\LL	16b\LL	.
.	16gg\JJ	16gg\JJ	.
8B\J	16gg\LL	16gg\LL	.
.	32ff#\L	32ff#\L	.
.	32gg\JJJ	32gg\JJJ	.
8F#\L	8dd\L	8dd\L	.
8D\J	8cc\J	8cc\J	.
=30	=30	=30	=30
8G\L	16b\LL	16b\LL	.
.	16gg\	16gg\	.
8A\J	16ff#\	16ff#\	.
.	16aa\JJ	16aa\JJ	.
8B\L	16gg\LL	16gg\LL	.
.	16dd\	16dd\	.
8c\J	16ee\	16ee\	.
.	16cc\JJ	16cc\JJ	.
!LO:LB:g=original	!LO:LB:g=original	!	!
8d\L	4b\	4b\	.
8d\J	.	.	.
8D/L	8.a\	8.a\	.
8D/J	.	.	.
.	16g\	16g\	-ni-
!	!	!LO:LB:g=original	!
=31	=31	=31	=31
!LO:TX:t=P:problem=mixed beam	!	!	!
8G\L	4g\	4g\	-bus
8GG/	.	.	.
8GG/J	16gg\LL	16gg\LL	ve-
.	16dd\JJ	16dd\JJ	.
8r	16dd\LL	16dd\LL	-re
.	16b\JJ	16b\JJ	.
8F#\L	16.a\LL	16.a\LL	Pa-
.	32cc\JJk	32cc\JJk	.
8G\	8b\	8b\	-nis
8G\J	16gg\LL	16gg\LL	Fi-
.	16dd\JJ	16dd\JJ	.
8r	16dd\LL	16dd\LL	-li-
.	16b\JJ	16b\JJ	.
!LO:LB:g=original	!LO:LB:g=original	!	!
=32	=32	=32	=32
8F#\L	16.a\LL	16.a\LL	-o-
.	32cc\JJk	32cc\JJk	.
8G\J	8b\	8b\	-rum
8G\L	8dd\	8dd\	non
!	!	!LO:SIC:v:l:s=mit-	!
8F#\J	8dd\	8dd\	mi-
!	!	!LO:LB:g=original	!
8E\L	8.gg\L	8.gg\L	-ten-
8E\J	.	.	.
.	16ff#\Jk	16ff#\Jk	.
8E\L	16gg\LL	16gg\LL	.
.	16ee\JJ	16ee\JJ	.
8E\J	16dd\LL	16dd\LL	-dus
.	16cc#X\JJ	16cc#X\JJ	.
=33	=33	=33	=33
8D\L	[>8dd\	[>8dd\	ca-
8E\J	32dd\LLL]	32dd\LLL]	.
.	32ee\	32ee\	.
.	32dd\	32dd\	.
.	32cc#X\JJJ	32cc#X\JJJ	.
8D\L	32dd\LLL	32dd\LLL	.
.	32cc#X\	32cc#X\	.
.	32dd\	32dd\	.
.	32ee\	32ee\JJJ	.
8C\J	32ff#\	32ff#\LLL	.
.	32ee\	32ee\	.
.	32ff#\	32ff#\	.
.	32aa\JJJ	32aa\JJJ	.
!LO:LB:g=original	!LO:LB:g=original	!	!
8BB/L	[>8gg\	[>8gg\	.
!	!	!LO:LB:g=original	!
8C/J	32gg\LLL]	32gg\LLL]	.
.	32aa\	32aa\	.
.	32gg\	32gg\	.
.	32ff#\JJJ	32ff#\JJJ	.
8BB/L	32gg\LLL	32gg\LLL	.
.	32ff#\	32ff#\	.
.	32gg\	32gg\	.
.	32aa\	32aa\	.
8AA/J	32gg\	32gg\	.
.	32ff#\	32ff#\	.
.	32gg\	32gg\	.
.	32aa\JJJ	32aa\JJJ	.
=34	=34	=34	=34
8GG/L	8bb\L	8bb\L	.
8AA/J	32aa\KL	32aa\KL	.
.	16.gg\JJ	16.gg\JJ	.
8BB/L	32ff#\KLL	32ff#\KLL	.
.	16.ee\	16.ee\	.
8C/J	32dd\K	32dd\K	.
.	16.cc\JJ	16.cc\JJ	.
!	!	!LO:N:vis=8	!
8D\L	4b\	4b\	.
8D\J	.	.	.
8D\L	8.a\	8.a\	-ni-
8D\J	.	.	.
.	16g\	16g\	.
!!LO:PB:g=original
=35	=35	=35	=35
8E\L	4g\	4g\	-bus
8E\J	.	.	.
8BB/L	8.gg\	8.gg\	non
8BB/J	.	.	.
.	16gg\	16gg\	mit-
8C/L	8gg\	8gg\	-ten-
8C/J	8g/	8g/	-dus
8BB/L	4r	4r	.
8BB/J	.	.	.
=36	=36	=36	=36
8C\L	[>2g\	[>2g\	ca-
(>8BB\	.	.	.
8C\	.	.	.
8C#X\J)	.	.	.
2D;>\	4g;>\]	4g;>\]	.
.	8.a\	8.aT>\	.
.	16g\	16g\	-ni-
!!LO:LB:g=original
=37	=37	=37	=37
4GG/	4g\	4g\	-bus
4r	4r	4r	.
!!LO:TX:a:t=P:W źródle ozdobna kreska końcowa:problem
2r	2r	2r;>	.
==	==	==	==
*-	*-	*-	*-
!!!system-decoration: s1{(s2,s3)}
!!!RDF**kern: > = above
!!!RDF**kern: < = below
!!!RDF**kern: i = editorial accidental
!!!EED: Wojciech Jakubiak-Danek
!!!EEV: 2021-04-09
!!!ENC: Anastazja Marusiak
!!!END: 2021-03-15
!!!YEC: Copyright 2022 Narodowy Instytut Fryderyka Chopina (https://polishscores.org)
!!!YEM: License CC-BY-4.0 (https://creativecommons.org/licenses/by/4.0)
